X: 11627
T: Éigse An Spidéil
R: barndance
M: 4/4
K: Gmajor
|:G2 (3GGG G2G2|GABc dBGB|A2 (3AAA A2d2|(3efg fa gedB|
G2 (3GGG G2G2|GABc dBGd|efge fgaf|gabc' gedB:|
|:c4 B3G|(3ABc BG AGEG|c4 B3d|(3efg fa gedB|
c4 B3G|(3ABc BG AGEd|efge fgaf|gabc' gedB:|

